src/assets/light/error.svg

<svg width="120" height="119" viewBox="0 0 120 119" fill="none" xmlns="http://www.w3.org/2000/svg">
<mask id="mask0" mask-type="alpha" maskUnits="userSpaceOnUse" x="0" y="0" width="120" height="119">
<rect x="0.726318" y="0.0400391" width="118.289" height="118.288" fill="#C4C4C4"/>
</mask>
<g mask="url(#mask0)">
<circle cx="59.8654" cy="59.179" r="59.1391" fill="#BFB9DF" fill-opacity="0.3"/>
<mask id="mask1" mask-type="alpha" maskUnits="userSpaceOnUse" x="0" y="0" width="120" height="119">
<circle cx="59.8654" cy="59.179" r="59.1391" fill="#BFB9DF"/>
</mask>
<g mask="url(#mask1)">
<circle cx="8.67156" cy="110.535" r="57.3893" fill="url(#paint0_linear)"/>
<path opacity="0.1" d="M27.491 56.3021C21.5955 54.2566 15.2633 53.1452 8.67156 53.1452C-2.2112 53.1452 -12.3865 56.1744 -21.0571 61.4356C-17.9185 67.4616 -10.7005 70.2375 -4.15667 72.4224C7.39848 76.2869 19.1712 80.1898 31.3405 80.3945C32.8377 80.4199 34.341 80.39 35.8439 80.3601C41.1619 80.2543 46.4736 80.1486 51.482 82.4932C53.8494 83.6064 55.3209 86.1273 54.9498 88.7122C54.3356 92.9606 49.6521 93.7412 45.8516 93.8308C34.8386 94.087 23.8398 93.4085 12.8402 92.73C2.96878 92.121 -6.90324 91.512 -16.7867 91.5786C-26.694 91.6514 -36.7767 92.4778 -46.4745 94.5924C-47.9351 99.6539 -48.7177 105.003 -48.7177 110.534C-48.7177 142.23 -23.0237 167.924 8.67156 167.924C13.06 167.924 17.3335 167.431 21.4396 166.498C21.4256 166.495 21.4117 166.492 21.3977 166.489C1.6145 161.946 -19.0005 156.994 -34.5353 143.916C-36.5443 142.227 -38.5278 140.282 -39.3083 137.774C-40.7671 133.039 -37.3761 128.061 -33.2429 125.348C-26.5631 120.972 -17.9512 120.447 -10.1198 122.021C-3.2603 123.4 3.18687 126.251 9.60006 129.087C10.5087 129.489 11.4167 129.891 12.3251 130.288C21.6025 134.344 31.0462 137.978 40.6435 141.203C45.2519 142.75 49.9544 144.213 54.7672 144.727C58.563 139.618 61.5296 133.857 63.4679 127.641C61.2165 126.167 58.6079 125.186 56.0375 124.325C48.4245 121.764 40.6062 119.87 32.7918 117.977C23.15 115.642 13.514 113.307 4.27615 109.724C3.0477 109.25 1.65289 108.547 1.43535 107.241C1.2818 106.307 1.83204 105.399 2.44626 104.682C7.57981 98.7798 16.8347 100.832 24.5756 102.548C24.8232 102.603 25.0692 102.658 25.3134 102.711C36.8686 105.271 48.9867 105.284 60.5547 102.763C62.1228 102.421 63.7519 101.94 65.3241 101.314C63.724 91.4063 59.5871 82.3475 53.6013 74.8259C51.0654 74.103 48.4952 73.4625 45.9228 72.8214C41.6066 71.7458 37.284 70.6686 33.1064 69.1977C31.1358 68.5067 29.2163 67.7261 27.3096 66.8816C22.3646 64.6838 23.176 57.9941 27.491 56.3021Z" fill="white"/>
</g>
<g clip-path="url(#clip0)">
<mask id="mask2" mask-type="alpha" maskUnits="userSpaceOnUse" x="0" y="0" width="120" height="119">
<circle cx="59.8654" cy="59.1791" r="59.1391" fill="#BFB9DF"/>
</mask>
<g mask="url(#mask2)">
<path d="M49.8337 50.5759C42.932 55.2958 41.1399 64.7728 45.8292 71.6492C50.5543 78.5174 60.0628 80.2864 66.9726 75.6021L165.56 8.40136L148.43 -16.5892L49.8337 50.5759Z" fill="url(#paint1_linear)"/>
<path d="M52.8221 56.2662C48.459 59.2461 47.3316 65.199 50.3148 69.541C53.298 73.8831 59.2707 74.9959 63.6339 72.0159L125.718 29.7311L114.942 13.9732L52.8221 56.2662Z" fill="url(#paint2_linear)"/>
<path d="M78.2401 50.7386C78.2401 50.7386 65.5542 67.2314 62.5912 69.2554C59.6282 71.2794 55.5787 70.5154 53.5525 67.5668C51.5263 64.6182 52.3002 60.5821 55.2631 58.5581C58.2261 56.5341 78.2401 50.7386 78.2401 50.7386Z" fill="url(#paint3_linear)"/>
<circle opacity="0.8" cx="52.3095" cy="34.5667" r="0.87501" fill="white"/>
<circle opacity="0.8" cx="40.1454" cy="12.0349" r="0.513469" fill="white"/>
</g>
</g>
<path d="M73.7188 17.0441C74.0013 17.0441 74.0013 16.6028 73.7188 16.6028C73.4305 16.6028 73.4305 17.0441 73.7188 17.0441Z" fill="white"/>
<path d="M67.1931 22.3458C67.4755 22.3458 67.4755 21.9045 67.1931 21.9045C66.9106 21.9045 66.9106 22.3458 67.1931 22.3458Z" fill="white"/>
<path d="M80.6505 24.9288C80.933 24.9288 80.933 24.4875 80.6505 24.4875C80.3681 24.4875 80.3681 24.9288 80.6505 24.9288Z" fill="white"/>
<path d="M74.1249 24.6582C74.4073 24.6582 74.4073 24.2168 74.1249 24.2168C73.8424 24.2168 73.8424 24.6582 74.1249 24.6582Z" fill="white"/>
<path d="M92.2074 31.4544C92.4898 31.4544 92.4898 31.0131 92.2074 31.0131C91.9191 31.0131 91.9191 31.4544 92.2074 31.4544Z" fill="white"/>
<path d="M92.0662 25.6115C92.3487 25.6115 92.3487 25.1702 92.0662 25.1702C91.7838 25.1702 91.7838 25.6115 92.0662 25.6115Z" fill="white"/>
<path d="M86.7644 22.6164C87.0469 22.6164 87.0469 22.1751 86.7644 22.1751C86.482 22.1751 86.482 22.6164 86.7644 22.6164Z" fill="white"/>
<path d="M97.9153 33.7674C98.1977 33.7674 98.1977 33.3261 97.9153 33.3261C97.6328 33.3261 97.6269 33.7674 97.9153 33.7674Z" fill="white"/>
<path fill-rule="evenodd" clip-rule="evenodd" d="M68.6877 16.6911L69.2232 16.9971L68.6759 17.2795L68.3699 17.8209L68.0816 17.2736L67.5461 16.9617L68.0934 16.6793L68.3994 16.1379L68.6877 16.6911Z" fill="white"/>
<path fill-rule="evenodd" clip-rule="evenodd" d="M96.3382 28.6481L96.8737 28.9541L96.3264 29.2424L96.0205 29.7779L95.7321 29.2306L95.1966 28.9246L95.7439 28.6363L96.0499 28.1008L96.3382 28.6481Z" fill="white"/>
<path fill-rule="evenodd" clip-rule="evenodd" d="M74.9898 27.7121L75.5312 28.0181L74.978 28.3064L74.672 28.8419L74.3837 28.2947L73.8482 27.9887L74.3955 27.7004L74.7015 27.159L74.9898 27.7121Z" fill="white"/>
<path fill-rule="evenodd" clip-rule="evenodd" d="M78.1732 10.4594L79.2324 11.0655L78.1497 11.6304L77.5495 12.6896L76.9787 11.6127L75.9195 11.0066L77.0023 10.4359L77.6083 9.37668L78.1732 10.4594Z" fill="white"/>
<path d="M110.64 57.0141C110.922 57.0141 110.922 57.4554 110.64 57.4554C110.351 57.4554 110.351 57.0141 110.64 57.0141Z" fill="white"/>
<path d="M104.114 51.7124C104.396 51.7124 104.396 52.1538 104.114 52.1538C103.831 52.1538 103.831 51.7124 104.114 51.7124Z" fill="white"/>
<path d="M117.571 49.1294C117.854 49.1294 117.854 49.5707 117.571 49.5707C117.289 49.5707 117.289 49.1294 117.571 49.1294Z" fill="white"/>
<path d="M111.046 49.4001C111.328 49.4001 111.328 49.8414 111.046 49.8414C110.763 49.8414 110.763 49.4001 111.046 49.4001Z" fill="white"/>
<path fill-rule="evenodd" clip-rule="evenodd" d="M105.609 57.3672L106.144 57.0612L105.597 56.7787L105.291 56.2374L105.002 56.7846L104.467 57.0965L105.014 57.3789L105.32 57.9203L105.609 57.3672Z" fill="white"/>
<path fill-rule="evenodd" clip-rule="evenodd" d="M111.911 46.3461L112.452 46.0401L111.899 45.7518L111.593 45.2163L111.305 45.7636L110.769 46.0695L111.316 46.3579L111.622 46.8992L111.911 46.3461Z" fill="white"/>
<path fill-rule="evenodd" clip-rule="evenodd" d="M115.094 63.5988L116.153 62.9927L115.071 62.4278L114.47 61.3687L113.9 62.4455L112.84 63.0516L113.923 63.6224L114.529 64.6815L115.094 63.5988Z" fill="white"/>
<path d="M73.2928 87.0583C73.5752 87.0583 73.5752 86.617 73.2928 86.617C73.0045 86.617 73.0045 87.0583 73.2928 87.0583Z" fill="white"/>
<path d="M66.767 92.36C67.0495 92.36 67.0495 91.9186 66.767 91.9186C66.4846 91.9186 66.4846 92.36 66.767 92.36Z" fill="white"/>
<path d="M80.2245 94.943C80.5069 94.943 80.5069 94.5016 80.2245 94.5016C79.942 94.5016 79.942 94.943 80.2245 94.943Z" fill="white"/>
<path d="M73.6988 94.6723C73.9813 94.6723 73.9813 94.231 73.6988 94.231C73.4164 94.231 73.4164 94.6723 73.6988 94.6723Z" fill="white"/>
<path d="M91.7814 101.469C92.0638 101.469 92.0638 101.027 91.7814 101.027C91.493 101.027 91.493 101.469 91.7814 101.469Z" fill="white"/>
<path d="M91.6402 95.6257C91.9226 95.6257 91.9226 95.1843 91.6402 95.1843C91.3577 95.1843 91.3577 95.6257 91.6402 95.6257Z" fill="white"/>
<path d="M86.3384 92.6306C86.6208 92.6306 86.6208 92.1893 86.3384 92.1893C86.0559 92.1893 86.0559 92.6306 86.3384 92.6306Z" fill="white"/>
<path d="M97.4892 103.782C97.7717 103.782 97.7717 103.34 97.4892 103.34C97.2068 103.34 97.2009 103.782 97.4892 103.782Z" fill="white"/>
<path fill-rule="evenodd" clip-rule="evenodd" d="M68.2616 86.7052L68.7971 87.0112L68.2499 87.2936L67.9439 87.835L67.6556 87.2878L67.1201 86.9759L67.6673 86.6934L67.9733 86.1521L68.2616 86.7052Z" fill="white"/>
<path fill-rule="evenodd" clip-rule="evenodd" d="M95.9122 98.6622L96.4476 98.9682L95.9004 99.2566L95.5944 99.792L95.3061 99.2448L94.7706 98.9388L95.3178 98.6505L95.6238 98.115L95.9122 98.6622Z" fill="white"/>
<path fill-rule="evenodd" clip-rule="evenodd" d="M74.5637 97.7263L75.1051 98.0323L74.552 98.3206L74.246 98.8561L73.9577 98.3088L73.4222 98.0029L73.9694 97.7145L74.2754 97.1732L74.5637 97.7263Z" fill="white"/>
<path fill-rule="evenodd" clip-rule="evenodd" d="M77.7472 80.4736L78.8064 81.0796L77.7237 81.6445L77.1234 82.7037L76.5527 81.6269L75.4935 81.0208L76.5762 80.45L77.1823 79.3908L77.7472 80.4736Z" fill="white"/>
<path d="M19.6843 39.1221C19.9668 39.1221 19.9668 38.6808 19.6843 38.6808C19.396 38.6808 19.396 39.1221 19.6843 39.1221Z" fill="white"/>
<path d="M13.1586 44.4237C13.441 44.4237 13.441 43.9824 13.1586 43.9824C12.8761 43.9824 12.8761 44.4237 13.1586 44.4237Z" fill="white"/>
<path d="M26.616 47.0068C26.8984 47.0068 26.8984 46.5654 26.616 46.5654C26.3335 46.5654 26.3335 47.0068 26.616 47.0068Z" fill="white"/>
<path d="M20.0903 46.7361C20.3728 46.7361 20.3728 46.2948 20.0903 46.2948C19.8079 46.2948 19.8079 46.7361 20.0903 46.7361Z" fill="white"/>
<path d="M38.1729 53.5324C38.4553 53.5324 38.4553 53.0911 38.1729 53.0911C37.8846 53.0911 37.8846 53.5324 38.1729 53.5324Z" fill="white"/>
<path d="M38.0317 47.6894C38.3142 47.6894 38.3142 47.2481 38.0317 47.2481C37.7493 47.2481 37.7493 47.6894 38.0317 47.6894Z" fill="white"/>
<path d="M32.7299 44.6944C33.0124 44.6944 33.0124 44.2531 32.7299 44.2531C32.4475 44.2531 32.4475 44.6944 32.7299 44.6944Z" fill="white"/>
<path d="M43.8808 55.8453C44.1632 55.8453 44.1632 55.404 43.8808 55.404C43.5983 55.404 43.5924 55.8453 43.8808 55.8453Z" fill="white"/>
<path fill-rule="evenodd" clip-rule="evenodd" d="M14.6532 38.769L15.1887 39.075L14.6414 39.3574L14.3354 39.8988L14.0471 39.3515L13.5116 39.0397L14.0589 38.7572L14.3648 38.2159L14.6532 38.769Z" fill="white"/>
<path fill-rule="evenodd" clip-rule="evenodd" d="M42.3037 50.726L42.8392 51.032L42.2919 51.3203L41.9859 51.8558L41.6976 51.3086L41.1621 51.0026L41.7094 50.7143L42.0154 50.1788L42.3037 50.726Z" fill="white"/>
<path fill-rule="evenodd" clip-rule="evenodd" d="M20.9553 49.7901L21.4966 50.0961L20.9435 50.3844L20.6375 50.9199L20.3492 50.3726L19.8137 50.0666L20.361 49.7783L20.6669 49.2369L20.9553 49.7901Z" fill="white"/>
<circle opacity="0.8" cx="57.7587" cy="8.37641" r="0.87501" fill="white"/>
<circle opacity="0.8" cx="31.1704" cy="28.8862" r="0.444862" fill="white"/>
<circle opacity="0.8" cx="5.9129" cy="41.9936" r="0.87501" fill="white"/>
<circle opacity="0.8" cx="74.2194" cy="3.37768" r="0.403892" fill="white"/>
</g>
<defs>
<linearGradient id="paint0_linear" x1="5.554" y1="52.2923" x2="8.28661" y2="189.602" gradientUnits="userSpaceOnUse">
<stop offset="0.2225" stop-color="#3C0289"/>
<stop offset="0.651" stop-color="#6050B0"/>
<stop offset="1" stop-color="#80C3FF"/>
</linearGradient>
<linearGradient id="paint1_linear" x1="45.8564" y1="71.6476" x2="156.792" y2="-4.3961" gradientUnits="userSpaceOnUse">
<stop stop-color="#F2CC33" stop-opacity="0.2"/>
<stop offset="0.9987" stop-color="#DA185E" stop-opacity="0"/>
</linearGradient>
<linearGradient id="paint2_linear" x1="50.3052" y1="69.5393" x2="120.154" y2="21.6599" gradientUnits="userSpaceOnUse">
<stop stop-color="#F2CC33" stop-opacity="0.8"/>
<stop offset="0.2798" stop-color="#E98644" stop-opacity="0.5115"/>
<stop offset="0.6196" stop-color="#DE3757" stop-opacity="0.1612"/>
<stop offset="0.776" stop-color="#DA185E" stop-opacity="0"/>
</linearGradient>
<linearGradient id="paint3_linear" x1="53.5453" y1="67.5552" x2="78.2012" y2="50.6542" gradientUnits="userSpaceOnUse">
<stop stop-color="#F2CC33"/>
<stop offset="1" stop-color="#F7DC6B" stop-opacity="0.3"/>
</linearGradient>
<clipPath id="clip0">
<rect width="131.815" height="72.8209" fill="white" transform="translate(30.7842 10.2283) rotate(-12.832)"/>
</clipPath>
</defs>
</svg>

<svg width="120" height="119" fill="none" xmlns="http://www.w3.org/2000/svg"><mask id="a" maskUnits="userSpaceOnUse" x="0" y="0" width="120" height="119"><path fill="#C4C4C4" d="M.726.04h118.289v118.288H.726z"/></mask><g mask="url(#a)"><circle cx="59.865" cy="59.179" r="59.139" fill="#BFB9DF" fill-opacity=".3"/><mask id="b" maskUnits="userSpaceOnUse" x="0" y="0" width="120" height="119"><circle cx="59.865" cy="59.179" r="59.139" fill="#BFB9DF"/></mask><g mask="url(#b)"><circle cx="8.672" cy="110.535" r="57.389" fill="url(#paint0_linear)"/><path opacity=".1" d="M27.491 56.302a57.308 57.308 0 00-18.82-3.157c-10.882 0-21.057 3.03-29.728 8.29 3.138 6.027 10.356 8.802 16.9 10.987 11.555 3.865 23.328 7.768 35.498 7.972 1.497.026 3-.004 4.503-.034 5.318-.106 10.63-.211 15.638 2.133 2.367 1.113 3.839 3.634 3.468 6.22-.614 4.248-5.298 5.028-9.098 5.118-11.013.256-22.012-.422-33.012-1.101-9.871-.609-19.743-1.218-29.627-1.151-9.907.072-19.99.899-29.688 3.013a57.42 57.42 0 00-2.243 15.942c0 31.696 25.694 57.39 57.39 57.39a57.57 57.57 0 0012.768-1.426l-.042-.009C1.614 161.946-19 156.994-34.535 143.916c-2.01-1.689-3.993-3.634-4.773-6.142-1.46-4.735 1.932-9.713 6.065-12.426 6.68-4.376 15.292-4.901 23.123-3.327 6.86 1.379 13.307 4.23 19.72 7.066.909.402 1.817.804 2.725 1.201a344.963 344.963 0 0028.319 10.915c4.608 1.547 9.31 3.01 14.123 3.524a57.2 57.2 0 008.7-17.086c-2.25-1.474-4.86-2.455-7.43-3.316-7.612-2.561-15.43-4.455-23.245-6.348-9.642-2.335-19.278-4.67-28.516-8.253-1.228-.474-2.623-1.177-2.84-2.483-.154-.934.396-1.842 1.01-2.559 5.134-5.902 14.389-3.85 22.13-2.134l.737.163a82.43 82.43 0 0035.242.052 30.659 30.659 0 004.77-1.449A57.131 57.131 0 0053.6 74.826c-2.536-.723-5.106-1.363-7.678-2.005-4.316-1.075-8.639-2.152-12.817-3.623a78.16 78.16 0 01-5.796-2.316c-4.945-2.198-4.134-8.888.181-10.58z" fill="#fff"/></g><g clip-path="url(#clip0)"><mask id="c" maskUnits="userSpaceOnUse" x="0" y="0" width="120" height="119"><circle cx="59.865" cy="59.179" r="59.139" fill="#BFB9DF"/></mask><g mask="url(#c)"><path d="M49.834 50.576c-6.902 4.72-8.694 14.197-4.005 21.073 4.725 6.868 14.234 8.637 21.144 3.953l98.587-67.2-17.13-24.991-98.596 67.165z" fill="url(#paint1_linear)"/><path d="M52.822 56.266c-4.363 2.98-5.49 8.933-2.507 13.275 2.983 4.342 8.956 5.455 13.319 2.475l62.084-42.285-10.776-15.758-62.12 42.293z" fill="url(#paint2_linear)"/><path d="M78.24 50.739S65.554 67.23 62.591 69.255a6.518 6.518 0 01-9.038-1.688c-2.027-2.949-1.253-6.985 1.71-9.009s22.977-7.82 22.977-7.82z" fill="url(#paint3_linear)"/><circle opacity=".8" cx="52.309" cy="34.567" r=".875" fill="#fff"/><circle opacity=".8" cx="40.145" cy="12.035" r=".513" fill="#fff"/></g></g><path d="M73.719 17.044c.282 0 .282-.441 0-.441-.288 0-.288.441 0 .441zM67.193 22.346c.282 0 .282-.442 0-.442s-.282.442 0 .442zM80.65 24.929c.283 0 .283-.441 0-.441-.282 0-.282.44 0 .44zM74.125 24.658c.282 0 .282-.441 0-.441-.283 0-.283.441 0 .441zM92.207 31.454c.283 0 .283-.44 0-.44-.288 0-.288.44 0 .44zM92.066 25.611c.283 0 .283-.44 0-.44-.282 0-.282.44 0 .44zM86.764 22.616c.283 0 .283-.44 0-.44-.282 0-.282.44 0 .44zM97.915 33.767c.283 0 .283-.44 0-.44-.282 0-.288.44 0 .44z" fill="#fff"/><path fill-rule="evenodd" clip-rule="evenodd" d="M68.688 16.691l.535.306-.547.282-.306.542-.288-.547-.536-.312.547-.283.306-.541.289.553zM96.338 28.648l.536.306-.548.288-.305.536-.289-.547-.535-.306.547-.289.306-.535.288.547zM74.99 27.712l.541.306-.553.288-.306.536-.288-.547-.536-.306.547-.289.306-.541.289.553zM78.173 10.46l1.06.605-1.083.565-.6 1.06-.571-1.077-1.06-.606 1.083-.571.606-1.06.565 1.083z" fill="#fff"/><path d="M110.64 57.014c.282 0 .282.441 0 .441-.289 0-.289-.44 0-.44zM104.114 51.712c.282 0 .282.442 0 .442-.283 0-.283-.442 0-.442zM117.571 49.13c.283 0 .283.44 0 .44-.282 0-.282-.44 0-.44zM111.046 49.4c.282 0 .282.441 0 .441-.283 0-.283-.44 0-.44z" fill="#fff"/><path fill-rule="evenodd" clip-rule="evenodd" d="M105.609 57.367l.535-.306-.547-.282-.306-.542-.289.548-.535.312.547.282.306.541.289-.553zM111.911 46.346l.541-.306-.553-.288-.306-.536-.288.548-.536.305.547.289.306.541.289-.553zM115.094 63.599l1.059-.606-1.082-.565-.601-1.06-.57 1.078-1.06.606 1.083.57.606 1.06.565-1.083z" fill="#fff"/><path d="M73.293 87.058c.282 0 .282-.441 0-.441-.289 0-.289.441 0 .441zM66.767 92.36c.282 0 .282-.441 0-.441s-.282.441 0 .441zM80.225 94.943c.282 0 .282-.441 0-.441-.283 0-.283.441 0 .441zM73.699 94.672c.282 0 .282-.441 0-.441-.283 0-.283.441 0 .441zM91.781 101.469c.283 0 .283-.442 0-.442-.288 0-.288.442 0 .442zM91.64 95.626c.283 0 .283-.442 0-.442-.282 0-.282.442 0 .442zM86.338 92.63c.283 0 .283-.44 0-.44-.282 0-.282.44 0 .44zM97.49 103.782c.282 0 .282-.442 0-.442-.283 0-.29.442 0 .442z" fill="#fff"/><path fill-rule="evenodd" clip-rule="evenodd" d="M68.262 86.705l.535.306-.547.283-.306.541-.288-.547-.536-.312.547-.283.306-.54.289.552zM95.912 98.662l.536.306-.548.289-.306.535-.288-.547-.535-.306.547-.288.306-.536.288.547zM74.564 97.726l.541.306-.553.289-.306.535-.288-.547-.536-.306.547-.288.306-.542.289.553zM77.747 80.474l1.06.606-1.083.564-.6 1.06-.571-1.077-1.06-.606 1.083-.571.606-1.06.565 1.084z" fill="#fff"/><path d="M19.684 39.122c.283 0 .283-.441 0-.441-.288 0-.288.441 0 .441zM13.159 44.424c.282 0 .282-.442 0-.442-.283 0-.283.442 0 .442zM26.616 47.007c.282 0 .282-.442 0-.442s-.282.442 0 .442zM20.09 46.736c.283 0 .283-.441 0-.441-.282 0-.282.441 0 .441zM38.173 53.532c.282 0 .282-.44 0-.44-.288 0-.288.44 0 .44zM38.032 47.69c.282 0 .282-.442 0-.442-.283 0-.283.441 0 .441zM32.73 44.694c.282 0 .282-.44 0-.44s-.282.44 0 .44zM43.88 55.845c.283 0 .283-.441 0-.441-.282 0-.288.441 0 .441z" fill="#fff"/><path fill-rule="evenodd" clip-rule="evenodd" d="M14.653 38.769l.536.306-.548.282-.306.542-.288-.547-.535-.312.547-.283.306-.541.288.553zM42.304 50.726l.535.306-.547.288-.306.536-.288-.547-.536-.306.547-.289.306-.535.289.547zM20.955 49.79l.542.306-.553.288-.306.536-.289-.547-.535-.306.547-.289.306-.541.288.553z" fill="#fff"/><circle opacity=".8" cx="57.759" cy="8.376" r=".875" fill="#fff"/><circle opacity=".8" cx="31.17" cy="28.886" r=".445" fill="#fff"/><circle opacity=".8" cx="5.913" cy="41.994" r=".875" fill="#fff"/><circle opacity=".8" cx="74.219" cy="3.378" r=".404" fill="#fff"/></g><defs><linearGradient id="paint0_linear" x1="5.554" y1="52.292" x2="8.287" y2="189.602" gradientUnits="userSpaceOnUse"><stop offset=".223" stop-color="#3C0289"/><stop offset=".651" stop-color="#6050B0"/><stop offset="1" stop-color="#80C3FF"/></linearGradient><linearGradient id="paint1_linear" x1="45.856" y1="71.648" x2="156.792" y2="-4.396" gradientUnits="userSpaceOnUse"><stop stop-color="#F2CC33" stop-opacity=".2"/><stop offset=".999" stop-color="#DA185E" stop-opacity="0"/></linearGradient><linearGradient id="paint2_linear" x1="50.305" y1="69.539" x2="120.154" y2="21.66" gradientUnits="userSpaceOnUse"><stop stop-color="#F2CC33" stop-opacity=".8"/><stop offset=".28" stop-color="#E98644" stop-opacity=".511"/><stop offset=".62" stop-color="#DE3757" stop-opacity=".161"/><stop offset=".776" stop-color="#DA185E" stop-opacity="0"/></linearGradient><linearGradient id="paint3_linear" x1="53.545" y1="67.555" x2="78.201" y2="50.654" gradientUnits="userSpaceOnUse"><stop stop-color="#F2CC33"/><stop offset="1" stop-color="#F7DC6B" stop-opacity=".3"/></linearGradient><clipPath id="clip0"><path fill="#fff" transform="rotate(-12.832 60.871 -131.764)" d="M0 0h131.815v72.821H0z"/></clipPath></defs></svg>
